X:4669
T:Echa los brazos arriba
M:6/8
L:1/8
Q:92
S:Trad
O:Spain
A:Valle de Lago (Somiedo) ASTURIAS
R:Jota
K:Am
|:AcB AcB|A2 ^G-G3|Bdd Bdd|1c2-B-A3-|A3-Azz:|2c2-B-A3-|A3-A2z||
AcB AcB|A2^G-Gzz|Bdd Bdd|c2-B-A3-|A3-A3-|A3z2z|
W: Echa los brazos arriba,
W: cara de buen bailador.
W: Echa los brazos arriba
W: si quieres bailar mejor.
